!!!COM: Palestrina, Giovanni Perluigi da
!!!OPR: Missa Laudate Dominum
!!!OTL: Agnus I
**kern	**kern	**kern	**kern	**kern	**kern	**kern	**kern
*Ibass	*Itenor	*Icalto	*Icant	*Ibass	*Itenor	*Icalto	*Icant
!Bassus	!Tenor	!Altus	!Cantus	!Bassus	!Tenor	!Altus	!Cantus
*clefF4	*clefGv2	*clefG2	*clefG2	*clefF4	*clefGv2	*clefG2	*clefG2
*k[b-]	*k[b-]	*k[b-]	*k[b-]	*k[b-]	*k[b-]	*k[b-]	*k[b-]
*F:ion	*F:ion	*F:ion	*F:ion	*F:ion	*F:ion	*F:ion	*F:ion
*M4/2	*M4/2	*M4/2	*M4/2	*M4/2	*M4/2	*M4/2	*M4/2
=1	=1	=1	=1	=1	=1	=1	=1
0r	0r	0r	0r	0r	0r	1r	1f
.	.	.	.	.	.	1c	[1cc
=2	=2	=2	=2	=2	=2	=2	=2
0r	0r	0r	0r	0r	0r	1.f	2cc]
.	.	.	.	.	.	.	2cc
.	.	.	.	.	.	.	2.cc
.	.	.	.	.	.	2f	.
.	.	.	.	.	.	.	4b-
=3	=3	=3	=3	=3	=3	=3	=3
0r	0r	0r	0r	0r	0r	2.f	1a
.	.	.	.	.	.	4e	.
.	.	.	.	.	.	4d	[1dd
.	.	.	.	.	.	4c	.
.	.	.	.	.	.	4B-	.
.	.	.	.	.	.	4c	.
=4	=4	=4	=4	=4	=4	=4	=4
0r	0r	0r	0r	0r	0r	4d	2dd]
.	.	.	.	.	.	4e	.
.	.	.	.	.	.	1f	4cc
.	.	.	.	.	.	.	4b-
.	.	.	.	.	.	.	2a
.	.	.	.	.	.	2e	2g
=5	=5	=5	=5	=5	=5	=5	=5
0r	0r	0r	0r	1r	1F	4d	2.a
.	.	.	.	.	.	4c	.
.	.	.	.	.	.	1f	.
.	.	.	.	.	.	.	4f
.	.	.	.	1C	[1c	.	1g
.	.	.	.	.	.	2e	.
=6	=6	=6	=6	=6	=6	=6	=6
0r	0r	0r	0r	1.F	2c]	0f	2.a
.	.	.	.	.	2c	.	.
.	.	.	.	.	.	.	4g
.	.	.	.	.	2.c	.	4a
.	.	.	.	.	.	.	4b-
.	.	.	.	2F	.	.	[2cc
.	.	.	.	.	4B-	.	.
=7	=7	=7	=7	=7	=7	=7	=7
0r	0r	0r	0r	2.F	1A	2r	4cc]
.	.	.	.	.	.	.	4b-
.	.	.	.	.	.	2F	4a
.	.	.	.	4E	.	.	4g
.	.	.	.	4D	[1d	2A	4f
.	.	.	.	4C	.	.	4e
.	.	.	.	4BB-	.	2B-	4d
.	.	.	.	4C	.	.	4e
=8	=8	=8	=8	=8	=8	=8	=8
0r	0r	0r	0r	4D	2d]	2.A	4f
.	.	.	.	4E	.	.	4g
.	.	.	.	1F	4c	.	2a
.	.	.	.	.	4B-	4B-	.
.	.	.	.	.	2A	4c	2f
.	.	.	.	.	.	4d	.
.	.	.	.	2E	2G	[2c	[2g
=9	=9	=9	=9	=9	=9	=9	=9
0r	0r	1r	1f	1D	2A	2c]	4g]
.	.	.	.	.	.	.	4f
.	.	.	.	.	2F	2B-	1f
.	.	2r	[1cc	1C	1G	1c	.
.	.	[2c	.	.	.	.	2e
=10	=10	=10	=10	=10	=10	=10	=10
0r	0r	2c]	2cc]	[0FF	[0F	[0A	2.f
.	.	1f	2cc	.	.	.	.
.	.	.	.	.	.	.	4g
.	.	.	2.cc	.	.	.	4a
.	.	.	.	.	.	.	4g
.	.	2f	.	.	.	.	4a
.	.	.	4b-	.	.	.	4b-
=11	=11	=11	=11	=11	=11	=11	=11
1r	1F	2.f	4a	1FF]	1F]	1A]	1cc
.	.	.	4g	.	.	.	.
.	.	.	2a	.	.	.	.
.	.	8e	.	.	.	.	.
.	.	8d	.	.	.	.	.
1C	[1c	4e	1g	1r	1r	1r	1r
.	.	4d	.	.	.	.	.
.	.	4c	.	.	.	.	.
.	.	4B-	.	.	.	.	.
=12	=12	=12	=12	=12	=12	=12	=12
1.F	2c]	2A	0f	0r	0r	0r	0r
.	2c	4F	.	.	.	.	.
.	.	4G	.	.	.	.	.
.	2.c	4A	.	.	.	.	.
.	.	4G	.	.	.	.	.
2F	.	4A	.	.	.	.	.
.	4B-	4B-	.	.	.	.	.
=13	=13	=13	=13	=13	=13	=13	=13
2.F	1A	2c	2r	0r	0r	0r	0r
.	.	2F	2f	.	.	.	.
4E	.	.	.	.	.	.	.
4D	[1d	2A	2f	.	.	.	.
4C	.	.	.	.	.	.	.
4BB-	.	2B-	4d	.	.	.	.
4C	.	.	4e	.	.	.	.
=14	=14	=14	=14	=14	=14	=14	=14
4D	2d]	2.A	4f	0r	0r	0r	0r
4E	.	.	4g	.	.	.	.
1F	4c	.	2a	.	.	.	.
.	4B-	4B-	.	.	.	.	.
.	2A	4c	2f	.	.	.	.
.	.	4d	.	.	.	.	.
2E	2G	[2c	[2g	.	.	.	.
=15	=15	=15	=15	=15	=15	=15	=15
1D	2A	2c]	4g]	1r	1F	0r	1r
.	.	.	4f	.	.	.	.
.	2F	2B	1f	.	.	.	.
1C	1G	[1c	.	1C	1c	.	1g
.	.	.	2e	.	.	.	.
=16	=16	=16	=16	=16	=16	=16	=16
1AA	1F	1c]	1f	1F	2c	1c	1a
.	.	.	.	.	2A	.	.
1r	1r	1r	1r	2F	2c	1f	2a
.	.	.	.	2D	2d	.	2f
=17	=17	=17	=17	=17	=17	=17	=17
0r	0r	0r	0r	2F	2c	2f	2a
.	.	.	.	2G	2B-	2d	2b-
.	.	.	.	2A	2c	[1f	2a
.	.	.	.	2B-	[2d	.	4g
.	.	.	.	.	.	.	4f
=18	=18	=18	=18	=18	=18	=18	=18
0r	1r	0r	0r	1F	2d]	2f]	1a
.	.	.	.	.	2c	2e	.
.	2r	.	.	[1G	2B	2d	[1g
.	2C	.	.	.	[2c	2c	.
=19	=19	=19	=19	=19	=19	=19	=19
1GG	1G	2r	1r	1G]	2c]	1d	0g]
.	.	2d	.	.	2B	.	.
1C	2G	1e	1g	1C	1c	1c	.
.	2E	.	.	.	.	.	.
=20	=20	=20	=20	=20	=20	=20	=20
2C	2G	2e	1cc	0r	0r	0r	0r
2AA	2A	2c	.	.	.	.	.
2C	2G	2e	2cc	.	.	.	.
2D	2F	2f	2a	.	.	.	.
=21	=21	=21	=21	=21	=21	=21	=21
2E	2r	2g	2.cc	0r	0r	0r	0r
1F	2A	1f	.	.	.	.	.
.	.	.	4b-	.	.	.	.
.	2.c	.	2a	.	.	.	.
2C	.	2e	2g	.	.	.	.
.	4B-	.	.	.	.	.	.
=22	=22	=22	=22	=22	=22	=22	=22
0D	2A	1d	2f	0r	0r	0r	0r
.	2G	.	1g	.	.	.	.
.	2.A	1d	.	.	.	.	.
.	.	.	2f	.	.	.	.
.	4B-	.	.	.	.	.	.
=23	=23	=23	=23	=23	=23	=23	=23
2.C	1c	1G	2e	0r	2r	2r	0r
.	.	.	2.c	.	2G	2g	.
4BB-	.	.	.	.	.	.	.
1AA	2.C	1c	.	.	2A	2f	.
.	.	.	4d	.	.	.	.
.	.	.	4e	.	[2c	[2e	.
.	4D	.	4f	.	.	.	.
=24	=24	=24	=24	=24	=24	=24	=24
1GG	4E	0r	1g	0r	2c]	2e]	2r
.	4F	.	.	.	.	.	.
.	2G	.	.	.	2B-	2d	2g
1r	1r	.	1r	.	1A	2.c	2a
.	.	.	.	.	.	.	[2cc
.	.	.	.	.	.	4d	.
=25	=25	=25	=25	=25	=25	=25	=25
0r	0r	0r	0r	0r	2G	4e	2cc]
.	.	.	.	.	.	4f	.
.	.	.	.	.	2G	2.g	2b-
.	.	.	.	.	2D	.	1a
.	.	.	.	.	.	4f	.
.	.	.	.	.	2F	[2f	.
=26	=26	=26	=26	=26	=26	=26	=26
0r	0r	0r	0r	2r	2C	2f]	1g
.	.	.	.	2C	2c	2e	.
.	.	.	.	2D	2B-	1f	1r
.	.	.	.	[2F	[2A	.	.
=27	=27	=27	=27	=27	=27	=27	=27
0r	0r	0r	0r	2F]	2A]	2r	1cc
.	.	.	.	2E	2G	2c	.
.	.	.	.	1D	4F	2d	2b-
.	.	.	.	.	4G	.	.
.	.	.	.	.	4A	[2f	[2a
.	.	.	.	.	4B-	.	.
=28	=28	=28	=28	=28	=28	=28	=28
0r	0r	0r	0r	1C	1c	2f]	2a]
.	.	.	.	.	.	2e	2g
.	.	.	.	1D	2A	[1d	4f
.	.	.	.	.	.	.	4g
.	.	.	.	.	2F	.	4a
.	.	.	.	.	.	.	4f
=29	=29	=29	=29	=29	=29	=29	=29
1r	0r	0r	1r	1BB-	2.B-	1d]	4g
.	.	.	.	.	.	.	4f
.	.	.	.	.	.	.	1f
.	.	.	.	.	4A	.	.
2r	.	.	2r	1C	1G	1c	.
2C	.	.	2cc	.	.	.	2e
=30	=30	=30	=30	=30	=30	=30	=30
2D	1r	1r	2b-	1F	1F	0r	1f
1F	.	.	1a	.	.	.	.
.	2r	1c	.	1r	1r	.	1r
2E	[2c	.	2g	.	.	.	.
=31	=31	=31	=31	=31	=31	=31	=31
1D	2c]	2d	1f	0r	0r	0r	0r
.	2B-	1f	.	.	.	.	.
1C	2A	.	2cc	.	.	.	.
.	[2G	2e	2cc	.	.	.	.
=32	=32	=32	=32	=32	=32	=32	=32
1D	2G]	0d	2b-	0r	0r	0r	0r
.	2F	.	2a	.	.	.	.
1BB-	2.B-	.	2g	.	.	.	.
.	.	.	[2f	.	.	.	.
.	4A	.	.	.	.	.	.
=33	=33	=33	=33	=33	=33	=33	=33
1C	1.G	2c	4f]	2r	1c	0r	1r
.	.	.	4e	.	.	.	.
.	.	4G	2e	2C	.	.	.
.	.	4A	.	.	.	.	.
2GG	.	4B-	1d	1D	1B-	.	2r
.	.	4c	.	.	.	.	.
2BB-	2F	2d	.	.	.	.	2f
=34	=34	=34	=34	=34	=34	=34	=34
1FF	2r	0c	2r	1F	1A	2r	1a
.	2C	.	2f	.	.	1c	.
1C	2E	.	1g	1E	1G	.	[1cc
.	2G	.	.	.	.	2c	.
=35	=35	=35	=35	=35	=35	=35	=35
2FF	4F	2r	1a	1F	2r	2c	2cc]
.	4G	.	.	.	.	.	.
1F	4A	1c	.	.	2F	4F	2cc
.	4B-	.	.	.	.	4G	.
.	2c	.	1g	1C	1G	4A	2.cc
.	.	.	.	.	.	4B-	.
2E	2C	2c	.	.	.	2c	.
.	.	.	.	.	.	.	4b-
=36	=36	=36	=36	=36	=36	=36	=36
1F	2r	2c	2.cc	1.FF	1A	[0c	4a
.	.	.	.	.	.	.	4g
.	1c	4A	.	.	.	.	1f
.	.	4B-	4b-	.	.	.	.
1C	.	4c	2a	.	2F	.	.
.	.	4d	.	.	.	.	.
.	2C	2e	[2g	2C	2G	.	2e
=37	=37	=37	=37	=37	=37	=37	=37
1FF	2.C	2c	4g]	2F	1A	0c]	1f
.	.	.	4f	.	.	.	.
.	.	2F	1f	2F	.	.	.
.	4D	.	.	.	.	.	.
1C	1E	2r	.	1C	1G	.	1g
.	.	[2c	2e	.	.	.	.
=38	=38	=38	=38	=38	=38	=38	=38
[0FF	[0C	4c]	[0f	[0F	[0F	[0c	[0a
.	.	4B-	.	.	.	.	.
.	.	4A	.	.	.	.	.
.	.	4G	.	.	.	.	.
.	.	1A	.	.	.	.	.
=39	=39	=39	=39	=39	=39	=39	=39
0FF]	0C]	0A	0f]	0F]	0F]	0c]	0a]
==	==	==	==	==	==	==	==
*-	*-	*-	*-	*-	*-	*-	*-
!!!CDT: 1525/^1526/-1594/2/2
!!!OCY: Italia
!!!AGN: Mass (Parody)
!!!AST: renaissance, vocal
!!!ASW: Motet 1572 (Palestrina)
!!!PWK: Masses, Book 8vce
!!!RNB: Cadence finals: C
!!!YOR: Le Opere Complete, v. 30, p. 1
!!!YOO: Rome, Italy: Fratelli Scalera
!!!END: 1992//
!!!EED: John Miller
!!!YEC: Copyright 2000, John Miller
!!!YEN: United States of America
!!!YEM: Rights to all derivative electronic formats reserved.
!!!YEM: Refer to licensing agreement for further details.
!!!YEM: This file must be accompanied by the licensing agreement.
!!!YEM: A copy of the licensing agreement may be found at http://www.music-cog.ohio-state.edu/HumdrumDatabases/Palestrina/license.txt
!!!EMD: converted to Humdrum by Bret Aarden
